X: 1
T: Hector the Hero   [A]
C: J. Scott Skinner
R: air, lament
H: Written for Major-General Hector A. MacDonald
Z: 2014 John Chambers <jc:trillian.mit.edu>
S: page from Concord Slow Scottish Session collection labelled "CAPE BRETON TUNES  SRSNH   10/91  4.11"
N: "F. Brackley" at lower right.
M: C
L: 1/8
K: A
%%slurgraces
A "A"|\
"A"{A}c>BA {A}fec | "A"{c}e3- e2A | "A"{A}c>BA "D"{A}fec | "E7"{Ac}B3- B2A |
"A"c>BA fec | "A7"e2A "D"{A}Ha2f | "A"(eA)c "E7"{Ac}B2A | "A"A3- A2 :|
|: c "B"|\
"F#m"f{a}gf {f}agf | "C#m"{f}e3- e2c | "D"fec "A"eAc | "E7"{Ac}B3- B3c |
"F#m"f{a}gf "D"{f}agf | "A/c#"eAB "Bm7"c<Haf | "A"(eA)c | "E7"{Ac}B2A | "A"A3- A2 :|

%%sep 1 1 500
%%sep 1 1 500

